static/img/social_icons/Pinterest.svg

<svg width="49" height="49" viewBox="0 0 49 49" fill="none" xmlns="http://www.w3.org/2000/svg">
<circle cx="24.5" cy="24.2379" r="23.5" stroke="#DC296C"/>
<path d="M16.1 21.5252C16.1 20.6951 16.2533 19.9109 16.5552 19.1789C16.8436 18.468 17.2722 17.8155 17.818 17.2563C18.3627 16.7043 18.986 16.2271 19.67 15.8383C20.3717 15.4362 21.1314 15.1329 21.9252 14.9378C22.7287 14.7379 23.556 14.6372 24.3867 14.6379C25.6698 14.6379 26.8639 14.8951 27.9712 15.4072C29.0641 15.91 29.9944 16.6817 30.6647 17.6414C31.3564 18.6177 31.7 19.722 31.7 20.9533C31.7 21.6916 31.6234 22.414 31.4668 23.1203C31.313 23.8262 31.0686 24.5117 30.7391 25.1614C30.4249 25.7903 30.0142 26.3717 29.5202 26.8867C29.0237 27.3934 28.4224 27.798 27.7538 28.0753C27.0279 28.3766 26.2426 28.5283 25.4501 28.5202C24.8992 28.5202 24.3495 28.3975 23.8065 28.151C23.2635 27.9056 22.8738 27.5685 22.6394 27.1363C22.5572 27.4362 22.4446 27.8693 22.2947 28.4359C22.1505 29.0014 22.0537 29.3663 22.0109 29.5317C21.9658 29.696 21.8824 29.9702 21.7608 30.35C21.6783 30.631 21.5724 30.9054 21.4442 31.1705L21.0567 31.8897C20.8891 32.1983 20.7018 32.4969 20.4957 32.7838C20.2918 33.0633 20.0395 33.3973 19.7387 33.7814L19.5708 33.8379L19.4593 33.7227C19.3388 32.5138 19.2768 31.7904 19.2768 31.5514C19.2768 30.844 19.3658 30.0502 19.5415 29.1689C19.7139 28.2887 19.9865 27.1822 20.3526 25.8517C20.7187 24.5223 20.9283 23.7402 20.9846 23.5087C20.7266 23.0104 20.596 22.3596 20.596 21.5593C20.596 20.9202 20.8066 20.3217 21.2291 19.7583C21.6526 19.1971 22.1877 18.9165 22.8366 18.9165C23.3334 18.9165 23.7186 19.0722 23.9946 19.3849C24.2718 19.6964 24.4069 20.0891 24.4069 20.5681C24.4069 21.076 24.229 21.8111 23.8707 22.7725C23.5125 23.7349 23.3345 24.4529 23.3345 24.9299C23.3345 25.4132 23.517 25.8176 23.882 26.1345C24.2422 26.4515 24.7185 26.6233 25.2101 26.6135C25.6562 26.6135 26.0697 26.5175 26.4538 26.3244C26.8319 26.1369 27.1593 25.8693 27.4102 25.5423C27.9568 24.832 28.3465 24.0246 28.5559 23.1683C28.664 22.7181 28.7474 22.2902 28.7992 21.888C28.8544 21.4836 28.8781 21.1016 28.8781 20.7388C28.8781 19.4083 28.432 18.3712 27.5454 17.6286C26.6543 16.886 25.494 16.5169 24.0667 16.5169C22.4434 16.5169 21.086 17.0141 19.9989 18.0117C18.9107 19.0061 18.3632 20.2704 18.3632 21.8037C18.3632 22.1419 18.4173 22.4684 18.5198 22.7842C18.6201 23.099 18.7293 23.3497 18.8476 23.5353C18.9648 23.7178 19.0752 23.896 19.1754 24.0603C19.2768 24.2246 19.3298 24.342 19.3298 24.4124C19.3298 24.6279 19.2701 24.9085 19.1495 25.2553C19.0245 25.6021 18.8769 25.7749 18.6989 25.7749C18.682 25.7749 18.6122 25.7632 18.4905 25.7386C18.0691 25.6195 17.6886 25.3968 17.3876 25.0931C17.0682 24.7784 16.8161 24.4081 16.6453 24.0027C16.4749 23.5987 16.3422 23.1813 16.2487 22.7554C16.1477 22.3524 16.0978 21.9394 16.1 21.5252Z" fill="white"/>
</svg>

<svg width="49" height="49" fill="none" xmlns="http://www.w3.org/2000/svg"><circle cx="24.5" cy="24.238" r="23.5" stroke="#DC296C"/><path d="M16.1 21.525c0-.83.153-1.614.455-2.346a5.966 5.966 0 0 1 1.263-1.923 8.725 8.725 0 0 1 4.107-2.319c.804-.2 1.631-.3 2.462-.3 1.283 0 2.477.258 3.584.77a6.685 6.685 0 0 1 2.694 2.234c.691.977 1.035 2.081 1.035 3.312a9.98 9.98 0 0 1-.233 2.167 8.524 8.524 0 0 1-.728 2.041 7.037 7.037 0 0 1-1.219 1.726 5.33 5.33 0 0 1-1.766 1.188 5.859 5.859 0 0 1-2.304.445c-.55 0-1.1-.122-1.643-.369-.543-.245-.933-.582-1.168-1.015-.082.3-.194.733-.344 1.3-.145.565-.241.93-.284 1.096-.045.164-.129.438-.25.818a5.34 5.34 0 0 1-.317.82l-.387.72a8.42 8.42 0 0 1-.561.894c-.204.28-.456.613-.757.997l-.168.057-.112-.115c-.12-1.21-.182-1.933-.182-2.172 0-.707.089-1.5.264-2.382.173-.88.445-1.987.812-3.317.366-1.33.575-2.112.632-2.343-.258-.499-.389-1.15-.389-1.95 0-.639.21-1.237.633-1.8.424-.562.959-.843 1.608-.843.496 0 .882.156 1.158.469.277.311.412.704.412 1.183 0 .508-.178 1.243-.536 2.204-.358.963-.537 1.68-.537 2.158 0 .483.183.888.548 1.204.36.317.836.49 1.328.48.446 0 .86-.097 1.244-.29.378-.187.705-.455.956-.782a6.377 6.377 0 0 0 1.146-2.374c.108-.45.191-.878.243-1.28.055-.404.08-.786.08-1.15 0-1.33-.447-2.367-1.334-3.11-.89-.742-2.051-1.111-3.478-1.111-1.624 0-2.981.497-4.068 1.495-1.088.994-1.636 2.258-1.636 3.792 0 .338.054.664.157.98.1.315.21.566.328.751.117.183.227.361.327.525.102.165.155.282.155.352 0 .216-.06.497-.18.843-.125.347-.273.52-.451.52-.017 0-.087-.012-.209-.036a2.514 2.514 0 0 1-1.102-.646 3.368 3.368 0 0 1-.743-1.09 7.16 7.16 0 0 1-.396-1.248 4.95 4.95 0 0 1-.149-1.23Z" fill="#fff"/></svg>
